assets/icon.svg

<svg clip-rule="evenodd" fill-rule="evenodd" stroke-linejoin="round" stroke-miterlimit="2" viewBox="0 0 202 149" xmlns="http://www.w3.org/2000/svg"><g transform="matrix(1.00845 0 0 .987537 -1786.81 -860.404)"><path d="m1771.84 871.263h200.116v149.904h-200.116z" fill="none"/><path d="m50.517 157-19.715-72.499h-30.802z" fill="#5c9161" transform="matrix(.991624 0 0 1.01262 1772.67 861.4)"/><path d="m47.616 146.329-14.869-54.673 16.987-22.128z" fill="#5c9161" transform="matrix(1.40529 0 0 1.43505 1762.22 810.392)"/><path d="m56.4 57.935h-32.673v-19.778h32.673v-27.845h19.876v27.845h46.832v-27.845h19.876v34.861l55.766 37.428-11.115 16.396-44.651-29.968v86.646h-19.876v-97.74h-46.832v97.74h-19.876z" transform="matrix(.997803 0 0 1.02401 1772.8 860.969)"/><path d="m142.984 54.09-8.163.626-76.944-12.984h85.107z" fill="#5c9161" transform="matrix(.523496 .360579 -3.1022 4.69658 2014.63 714.788)"/></g></svg>

<?xml version="1.0" encoding="UTF-8" standalone="no"?>
<!DOCTYPE svg PUBLIC "-//W3C//DTD SVG 1.1//EN" "http://www.w3.org/Graphics/SVG/1.1/DTD/svg11.dtd">
<svg width="100%" height="100%" viewBox="0 0 202 149" version="1.1" xmlns="http://www.w3.org/2000/svg" xmlns:xlink="http://www.w3.org/1999/xlink" xml:space="preserve" xmlns:serif="http://www.serif.com/" style="fill-rule:evenodd;clip-rule:evenodd;stroke-linejoin:round;stroke-miterlimit:2;">
    <g id="Artboard1" transform="matrix(1.00845,0,0,0.987537,-1786.81,-860.404)">
        <rect x="1771.84" y="871.263" width="200.116" height="149.904" style="fill:none;"/>
        <g transform="matrix(0.991624,0,0,1.01262,1772.67,861.4)">
            <path d="M50.517,157L30.802,84.501L0,84.501L50.517,157Z" style="fill:rgb(92,145,97);"/>
        </g>
        <g transform="matrix(1.40529,0,0,1.43505,1762.22,810.392)">
            <path d="M47.616,146.329L32.747,91.656L49.734,69.528L47.616,146.329Z" style="fill:rgb(92,145,97);"/>
        </g>
        <g transform="matrix(0.997803,0,0,1.02401,1772.8,860.969)">
            <path d="M56.4,57.935L23.727,57.935L23.727,38.157L56.4,38.157L56.4,10.312L76.276,10.312L76.276,38.157L123.108,38.157L123.108,10.312L142.984,10.312L142.984,45.173L198.75,82.601L187.635,98.997L142.984,69.029L142.984,155.675L123.108,155.675L123.108,57.935L76.276,57.935L76.276,155.675L56.4,155.675L56.4,57.935Z"/>
        </g>
        <g transform="matrix(0.523496,0.360579,-3.1022,4.69658,2014.63,714.788)">
            <path d="M142.984,54.09L134.821,54.716L57.877,41.732L142.984,41.732L142.984,54.09Z" style="fill:rgb(92,145,97);"/>
        </g>
    </g>
</svg>
